X:1
T:Blaenhafren, 87.87 D
T:Blaenhafren, 87.87 D
T:Welsh melody
T:Public Domain Courtesy of the Cyber Hymnal™
C:Welsh melody
Z:Public Domain
Z:Courtesy of the Cyber Hymnal™
%%score ( 1 2 ) ( 3 4 )
L:1/8
Q:1/4=100
M:2/4
K:Bb
V:1 treble 
V:2 treble 
V:3 bass 
V:4 bass 
V:1
 [DG]2 [DG]2 | (F>G) [DF]2 | (B>A) [DG]2 | (A>G) [D^F]2 | [DG]2 [DG]2 | [D^F]2 [DG]2 | [EA]2 ^F2 | %7
 [B,G]4 | [DG]2 [DG]2 | (F>E) [B,D]2 | (B>A) [DG]2 x | (A>G) [D^F]2 | [DG]2 [DG]2 | [D^F]2 [DG]2 | %14
 [EA]2 [D^F]2 | [DG]4 | (B>c) d2 | (B>c) d2 | (B>c) d2 | [Fd]2 [Fc]2 | [FB]3 [FA] | [FB]3 [^FA] | %22
 (z A) (Bc) | [^Fd]4 | [DG]2 [DG]2 | F>E [B,D]2 | (B>A) [DG]2 | (A>G) [D^F]2 | [DG]2 [DG]2 | %29
 [D^F]2 [DG]2 | [EA]2 ^F2 | [B,G]4 |] %32
V:2
 x4 | D2 x2 | D2 x2 | E2 x2 | x4 | x4 | x2 (DC) | x4 | x4 | C2 x2 | D2 x3 | E2 x2 | x4 | x4 | x4 | %15
 x4 | G2 (G^F) | G2 (G^F) | G2 (FG) | x4 | x4 | x4 | (G2 G2) | x4 | x4 | C2 x2 | D2 x2 | E2 x2 | %28
 x4 | x4 | x2 (DC) | x4 |] %32
V:3
 [G,,B,]2 [G,,B,]2 | (C>F,) [B,,F,]2 | ([G,,G,]>[A,,^F,]) (G,D) | (C>B,) [D,A,]2 | %4
 [B,,G,]2 [G,,B,]2 | A,2 [B,,G,]2 | [C,C]2 [D,A,]2 | [G,,G,]4 | [G,,B,]2 [G,,B,]2 | %9
 (C>F,) [B,,F,]2 | ([G,,G,]>[A,,^F,]) (G,D) x | (C>B,) [D,A,]2 | [B,,G,]2 [G,,B,]2 | A,2 [B,,G,]2 | %14
 [C,C]2 [D,C]2 | [G,,B,]4 | ([G,D]>[A,C]) B,[A,C] | [G,D]>[A,C] B,[A,C] | [G,D]2 B,2 | %19
 [F,B,]2 [F,A,]2 | B,3 [E,C] | D3 [D,C] | (B,A,) [E,G,]2 | [D,A,]4 | ([B,,G,]>[A,,A,]) [G,,B,]2 | %25
 (C>F,) [B,,F,]2 | ([G,,G,]>[A,,^F,]) (G,D) | (C>B,) [D,A,]2 | [B,,G,]2 [G,,B,]2 | A,2 [B,,G,]2 | %30
 [C,C]2 [D,A,]2 | [G,,G,]4 |] %32
V:4
 x4 | A,,2 x2 | x2 B,,2 | C,2 x2 | x4 | (D,>C,) x2 | x4 | x4 | x4 | A,,2 x2 | x2 B,,3 | C,2 x2 | %12
 x4 | (D,>C,) x2 | x4 | x4 | x2 B, x | x2 B, x | x2 (D,E,) | x4 | (D,C, D,) x | (D,C, B,,) x | %22
 G,2 x2 | x4 | x4 | A,,2 x2 | x2 B,,2 | C,2 x2 | x4 | (D,>C,) x2 | x4 | x4 |] %32

